packages/core/src/svgs/saito.svg

<svg width="24" height="24" viewBox="0 0 24 24" fill="none" xmlns="http://www.w3.org/2000/svg">
<g clip-path="url(#clip0_31_18270)">
<path d="M0 0H24V24H0V0Z" fill="#EA1D3A"/>
<path d="M18.7714 8.07855L12.0943 4.30712C12.078 4.29901 12.0607 4.29324 12.0428 4.28998H12.0343C12.0008 4.28515 11.9667 4.2896 11.9357 4.30283H11.9185L5.24568 8.06998L5.23282 8.07855C5.20636 8.09281 5.18412 8.11379 5.16832 8.13936C5.15252 8.16494 5.14373 8.19422 5.14282 8.22426V15.7714C5.1433 15.801 5.15145 15.83 5.16647 15.8556C5.18149 15.8811 5.20288 15.9023 5.22854 15.9171L11.9143 19.6885C11.94 19.7057 11.97 19.7143 12 19.7143C12.0343 19.7143 12.0643 19.7057 12.09 19.6885L18.7757 15.9171C18.7972 15.9043 18.8156 15.8869 18.8297 15.8662C18.8438 15.8454 18.8531 15.8219 18.8571 15.7971V8.22855C18.8566 8.19892 18.8485 8.16993 18.8335 8.14439C18.8184 8.11885 18.7971 8.09764 18.7714 8.08283V8.07855ZM11.7857 19.2428L5.54997 15.7028L8.74282 10.35L11.7857 12.0985V19.2428ZM5.57139 8.50712L8.44282 10.1785L5.57139 15.1243V8.50712ZM12.2143 12.0985L15.4885 10.2257L18.4285 8.52855V15.66H12.2143V12.1028V12.0985ZM15.4628 9.84426L12.9 5.60569L12.4885 4.93283L18.33 8.22426L15.4628 9.84426ZM11.9357 4.69283L15.1543 10.0157L13.2471 11.0914L12 11.7985L5.68282 8.21569L11.9357 4.69283ZM12.2143 16.0585H17.61L12.2143 19.2428V16.0585Z" fill="white"/>
</g>
<defs>
<clipPath id="clip0_31_18270">
<rect width="24" height="24" fill="white"/>
</clipPath>
</defs>
</svg>

<svg xmlns="http://www.w3.org/2000/svg" width="24" height="24" fill="none" viewBox="0 0 24 24"><g clip-path="url(#a)"><path fill="#EA1D3A" d="M0 0h24v24H0z"/><path fill="#fff" d="m18.771 8.079-6.677-3.772a.2.2 0 0 0-.051-.017h-.009a.2.2 0 0 0-.098.013h-.018L5.247 8.07l-.013.009a.17.17 0 0 0-.09.145v7.547a.17.17 0 0 0 .086.146l6.685 3.772a.15.15 0 0 0 .086.025.16.16 0 0 0 .09-.025l6.686-3.772a.17.17 0 0 0 .081-.12V8.23a.17.17 0 0 0-.086-.146zm-6.985 11.164-6.236-3.54 3.193-5.353 3.043 1.749zM5.57 8.507l2.872 1.672-2.872 4.945zm6.643 3.592 3.274-1.873 2.94-1.697v7.131h-6.214v-3.562m3.249-2.255L12.9 5.606l-.412-.673 5.842 3.291zm-3.527-5.151 3.218 5.323-1.907 1.075L12 11.8 5.683 8.216zm.278 11.365h5.396l-5.396 3.185z"/></g><defs><clipPath id="a"><path fill="#fff" d="M0 0h24v24H0z"/></clipPath></defs></svg>
